;FLAVOR:Marlin
;TIME:20685
;Filament used: 11.2684m
;Layer height: 0.12
;MINX:46.5
;MINY:46.5
;MINZ:0.12
;MAXX:188.5
;MAXY:188.5
;MAXZ:3
;Generated with Cura_SteamEngine 4.10.0
M140 S60
M105
M190 S60
M104 S210
M105
M109 S210
M82 ;absolute extrusion mode
; Ender 3 Custom Start G-code
G92 E0 ; Reset Extruder
G28 ; Home all axes
G1 Z2.0 F3000 ; Move Z Axis up little to prevent scratching of Heat Bed
G1 X0.1 Y20 Z0.3 F5000.0 ; Move to start position
G1 X0.1 Y200.0 Z0.3 F1500.0 E15 ; Draw the first line
G1 X0.4 Y200.0 Z0.3 F5000.0 ; Move to side a little
G1 X0.4 Y20 Z0.3 F1500.0 E30 ; Draw the second line
G92 E0 ; Reset Extruder
G1 Z2.0 F3000 ; Move Z Axis up little to prevent scratching of Heat Bed
G1 X5 Y20 Z0.3 F5000.0 ; Move over to prevent blob squish
G92 E0
G92 E0
G1 F2700 E-5
;LAYER_COUNT:25
;LAYER:0
M107
G0 F6000 X49.698 Y49.764 Z0.12
;TYPE:SKIRT
G1 F2700 E0
G1 F1200 X50.386 Y49.127 E0.01871
G1 X51.126 Y48.551 E0.03742
G1 X51.912 Y48.039 E0.05614
G1 X52.739 Y47.597 E0.07486
G1 X53.601 Y47.227 E0.09358
G1 X54.491 Y46.931 E0.11229
G1 X55.403 Y46.713 E0.13101
G1 X56.33 Y46.572 E0.14972
G1 X57.201 Y46.513 E0.16714
G1 X57.522 Y46.504 E0.17355
G1 X57.83 Y46.5 E0.1797
G1 X154.793 Y46.5 E2.1147
G1 X155.649 Y46.511 E2.13178
G1 X156.263 Y46.537 E2.14405
G1 X156.833 Y46.578 E2.15545
G1 X158.722 Y46.738 E2.19328
G1 X161.181 Y46.878 E2.24243
G1 X163.739 Y46.95 E2.2935
G1 X166.228 Y46.95 E2.34317
G1 X168.786 Y46.878 E2.39424
G1 X171.309 Y46.735 E2.44467
G1 X172.636 Y46.631 E2.47123
G1 X173.569 Y46.55 E2.48992
G1 X174.201 Y46.514 E2.50255
G1 X174.514 Y46.505 E2.5088
G1 X174.83 Y46.5 E2.51511
G1 X176.951 Y46.501 E2.55744
G1 X177.649 Y46.511 E2.57137
G1 X178.585 Y46.565 E2.59008
G1 X179.513 Y46.697 E2.60878
G1 X180.427 Y46.909 E2.62751
G1 X181.319 Y47.198 E2.64622
G1 X182.184 Y47.561 E2.66494
G1 X183.014 Y47.997 E2.68365
G1 X183.805 Y48.502 E2.70238
G1 X184.549 Y49.073 E2.72109
G1 X185.242 Y49.705 E2.73981
G1 X185.879 Y50.393 E2.75852
G1 X186.454 Y51.134 E2.77724
G1 X186.965 Y51.92 E2.79595
G1 X187.407 Y52.748 E2.81468
G1 X187.776 Y53.61 E2.83339
G1 X188.071 Y54.5 E2.8521
G1 X188.289 Y55.412 E2.87081
G1 X188.429 Y56.34 E2.88954
G1 X188.487 Y57.201 E2.90676
G1 X188.496 Y57.521 E2.91315
G1 X188.5 Y57.83 E2.91932
G1 X188.499 Y176.9 E5.29549
G1 X188.49 Y177.627 E5.31
G1 X188.439 Y178.564 E5.32873
G1 X188.307 Y179.492 E5.34743
G1 X188.098 Y180.406 E5.36614
G1 X187.811 Y181.299 E5.38486
G1 X187.449 Y182.165 E5.40359
G1 X187.015 Y182.996 E5.4223
G1 X186.511 Y183.787 E5.44102
G1 X185.942 Y184.532 E5.45973
G1 X185.311 Y185.227 E5.47846
G1 X184.624 Y185.865 E5.49717
G1 X183.885 Y186.442 E5.51588
G1 X183.099 Y186.954 E5.5346
G1 X182.273 Y187.397 E5.5533
G1 X181.411 Y187.769 E5.57204
G1 X180.522 Y188.065 E5.59074
G1 X179.61 Y188.285 E5.60946
G1 X178.683 Y188.426 E5.62817
G1 X177.799 Y188.487 E5.64586
G1 X177.478 Y188.496 E5.65226
G1 X177.17 Y188.5 E5.65841
G1 X58.065 Y188.499 E8.03528
G1 X57.367 Y188.49 E8.04921
G1 X56.431 Y188.438 E8.06792
G1 X55.502 Y188.306 E8.08664
G1 X54.588 Y188.096 E8.10536
G1 X53.695 Y187.809 E8.12408
G1 X52.83 Y187.446 E8.1428
G1 X51.999 Y187.012 E8.16151
G1 X51.208 Y186.508 E8.18022
G1 X50.463 Y185.938 E8.19894
G1 X49.769 Y185.307 E8.21766
G1 X49.132 Y184.62 E8.23636
G1 X48.555 Y183.88 E8.25508
G1 X48.043 Y183.094 E8.2738
G1 X47.6 Y182.267 E8.29253
G1 X47.229 Y181.406 E8.31124
G1 X46.933 Y180.516 E8.32995
G1 X46.714 Y179.604 E8.34867
G1 X46.573 Y178.677 E8.36738
G1 X46.513 Y177.788 E8.38516
G1 X46.504 Y177.455 E8.39181
G1 X46.5 Y177.158 E8.39774
G1 X46.501 Y58.025 E10.77517
G1 X46.51 Y57.36 E10.78844
G1 X46.563 Y56.424 E10.80715
G1 X46.695 Y55.495 E10.82587
G1 X46.906 Y54.581 E10.84459
G1 X47.194 Y53.689 E10.8633
G1 X47.557 Y52.824 E10.88202
G1 X47.992 Y51.993 E10.90074
G1 X48.496 Y51.203 E10.91944
G1 X49.066 Y50.458 E10.93816
G1 X49.698 Y49.764 E10.95689
G0 F6000 X50.089 Y49.939
G1 F1200 X50.774 Y49.323 E10.97527
G1 X51.51 Y48.77 E10.99364
G1 X52.291 Y48.282 E11.01202
G1 X53.111 Y47.864 E11.03039
G1 X53.965 Y47.519 E11.04877
G1 X54.845 Y47.249 E11.06714
G1 X55.745 Y47.057 E11.0855
G1 X56.659 Y46.943 E11.10389
G1 X57.212 Y46.913 E11.11494
G1 X57.533 Y46.904 E11.12135
G1 X57.83 Y46.9 E11.12727
G1 X154.793 Y46.9 E13.06228
G1 X155.643 Y46.911 E13.07924
G1 X156.235 Y46.936 E13.09106
G1 X156.799 Y46.977 E13.10235
G1 X158.664 Y47.135 E13.1397
G1 X161.183 Y47.278 E13.19005
G1 X163.728 Y47.35 E13.24086
G1 X166.239 Y47.35 E13.29097
G1 X168.784 Y47.278 E13.34178
G1 X171.317 Y47.134 E13.39241
G1 X172.699 Y47.026 E13.42007
G1 X173.603 Y46.948 E13.43818
G1 X174.212 Y46.913 E13.45035
G1 X174.525 Y46.904 E13.4566
G1 X174.83 Y46.9 E13.46269
G1 X176.945 Y46.901 E13.50489
G1 X177.643 Y46.911 E13.51883
G1 X178.562 Y46.964 E13.5372
G1 X179.473 Y47.097 E13.55557
G1 X180.369 Y47.308 E13.57394
G1 X181.243 Y47.596 E13.5923
G1 X182.09 Y47.959 E13.61069
G1 X182.901 Y48.394 E13.62906
G1 X183.671 Y48.898 E13.64742
G1 X184.395 Y49.467 E13.6658
G1 X185.067 Y50.097 E13.68418
G1 X185.682 Y50.782 E13.70255
G1 X186.235 Y51.518 E13.72092
G1 X186.722 Y52.299 E13.73929
G1 X187.139 Y53.12 E13.75767
G1 X187.484 Y53.974 E13.77605
G1 X187.753 Y54.854 E13.79441
G1 X187.945 Y55.755 E13.8128
G1 X188.058 Y56.668 E13.83115
G1 X188.087 Y57.212 E13.84203
G1 X188.096 Y57.532 E13.84841
G1 X188.1 Y57.83 E13.85436
G1 X188.099 Y176.895 E16.23043
G1 X188.09 Y177.622 E16.24494
G1 X188.039 Y178.541 E16.26331
G1 X187.908 Y179.453 E16.2817
G1 X187.698 Y180.349 E16.30006
G1 X187.412 Y181.224 E16.31843
G1 X187.051 Y182.071 E16.33681
G1 X186.617 Y182.883 E16.35518
G1 X186.115 Y183.655 E16.37356
G1 X185.547 Y184.38 E16.39194
G1 X184.919 Y185.053 E16.41031
G1 X184.235 Y185.669 E16.42868
G1 X183.5 Y186.223 E16.44704
G1 X182.72 Y186.712 E16.46541
G1 X181.9 Y187.131 E16.48379
G1 X181.047 Y187.477 E16.50216
G1 X180.167 Y187.748 E16.52054
G1 X179.267 Y187.941 E16.5389
G1 X178.353 Y188.056 E16.55729
G1 X177.788 Y188.087 E16.56858
G1 X177.467 Y188.096 E16.57499
G1 X177.17 Y188.1 E16.58092
G1 X58.07 Y188.099 E18.95769
G1 X57.372 Y188.09 E18.97162
G1 X56.453 Y188.038 E18.98999
G1 X55.542 Y187.907 E19.00835
G1 X54.646 Y187.697 E19.02672
G1 X53.771 Y187.41 E19.04509
G1 X52.924 Y187.048 E19.06348
G1 X52.112 Y186.614 E19.08185
G1 X51.341 Y186.112 E19.10021
G1 X50.616 Y185.544 E19.11859
G1 X49.943 Y184.915 E19.13697
G1 X49.328 Y184.231 E19.15533
G1 X48.774 Y183.496 E19.1737
G1 X48.286 Y182.715 E19.19207
G1 X47.867 Y181.895 E19.21045
G1 X47.521 Y181.042 E19.22882
G1 X47.251 Y180.162 E19.24719
G1 X47.058 Y179.261 E19.26558
G1 X46.944 Y178.348 E19.28394
G1 X46.913 Y177.777 E19.29535
G1 X46.904 Y177.444 E19.302
G1 X46.9 Y177.158 E19.30771
G1 X46.901 Y58.031 E21.68502
G1 X46.91 Y57.366 E21.69829
G1 X46.962 Y56.446 E21.71668
G1 X47.094 Y55.535 E21.73505
G1 X47.305 Y54.639 E21.75342
G1 X47.592 Y53.764 E21.77179
G1 X47.955 Y52.918 E21.79016
G1 X48.389 Y52.106 E21.80854
G1 X48.892 Y51.335 E21.82691
G1 X49.461 Y50.611 E21.84529
G1 X50.089 Y49.939 E21.86364
G0 F6000 X50.481 Y50.117
G1 F1200 X51.162 Y49.524 E21.88166
G1 X51.894 Y48.994 E21.8997
G1 X52.669 Y48.531 E21.91771
G1 X53.482 Y48.138 E21.93573
G1 X54.327 Y47.818 E21.95376
G1 X55.196 Y47.575 E21.97177
G1 X56.084 Y47.409 E21.9898
G1 X57.223 Y47.313 E22.01261
G1 X57.544 Y47.304 E22.01902
G1 X57.83 Y47.3 E22.02473
G1 X154.793 Y47.3 E23.95973
G1 X155.637 Y47.311 E23.97657
G1 X156.207 Y47.335 E23.98796
G1 X156.766 Y47.376 E23.99914
G1 X158.611 Y47.533 E24.03609
G1 X161.183 Y47.678 E24.0875
G1 X163.717 Y47.75 E24.13809
G1 X166.25 Y47.75 E24.18864
G1 X168.784 Y47.678 E24.23923
G1 X171.369 Y47.532 E24.2909
G1 X172.772 Y47.422 E24.31898
G1 X173.638 Y47.347 E24.33633
G1 X174.224 Y47.313 E24.34804
G1 X174.537 Y47.304 E24.35429
G1 X174.83 Y47.3 E24.36014
G1 X176.939 Y47.301 E24.40223
G1 X177.637 Y47.311 E24.41616
G1 X178.539 Y47.364 E24.43419
G1 X179.432 Y47.496 E24.4522
G1 X180.31 Y47.707 E24.47022
G1 X181.166 Y47.995 E24.48825
G1 X181.993 Y48.357 E24.50626
G1 X182.785 Y48.792 E24.52429
G1 X183.536 Y49.294 E24.54232
G1 X184.239 Y49.861 E24.56034
G1 X184.889 Y50.488 E24.57837
G1 X185.481 Y51.17 E24.59639
G1 X186.011 Y51.901 E24.61441
G1 X186.473 Y52.677 E24.63243
G1 X186.866 Y53.49 E24.65045
G1 X187.184 Y54.335 E24.66847
G1 X187.427 Y55.205 E24.6865
G1 X187.592 Y56.093 E24.70452
G1 X187.687 Y57.223 E24.72715
G1 X187.696 Y57.543 E24.73354
G1 X187.7 Y57.83 E24.73927
G1 X187.699 Y176.89 E27.11524
G1 X187.69 Y177.617 E27.12975
G1 X187.639 Y178.519 E27.14778
G1 X187.508 Y179.413 E27.16581
G1 X187.299 Y180.291 E27.18382
G1 X187.013 Y181.148 E27.20185
G1 X186.652 Y181.976 E27.21987
G1 X186.22 Y182.768 E27.23788
G1 X185.719 Y183.52 E27.25591
G1 X185.153 Y184.224 E27.27394
G1 X184.528 Y184.875 E27.29195
G1 X183.847 Y185.469 E27.30998
G1 X183.116 Y186 E27.32801
G1 X182.342 Y186.464 E27.34602
G1 X181.529 Y186.858 E27.36405
G1 X180.685 Y187.178 E27.38206
G1 X179.815 Y187.423 E27.4001
G1 X178.928 Y187.589 E27.41811
G1 X177.777 Y187.687 E27.44116
G1 X177.456 Y187.696 E27.44757
G1 X177.17 Y187.7 E27.45327
G1 X58.075 Y187.699 E29.82994
G1 X57.377 Y187.69 E29.84387
G1 X56.476 Y187.639 E29.86188
G1 X55.582 Y187.507 E29.87992
G1 X54.704 Y187.298 E29.89793
G1 X53.847 Y187.011 E29.91596
G1 X53.02 Y186.65 E29.93397
G1 X52.227 Y186.217 E29.952
G1 X51.476 Y185.716 E29.97002
G1 X50.772 Y185.15 E29.98805
G1 X50.121 Y184.524 E30.00607
G1 X49.528 Y183.843 E30.02409
G1 X48.998 Y183.112 E30.04211
G1 X48.534 Y182.337 E30.06013
G1 X48.14 Y181.524 E30.07816
G1 X47.82 Y180.68 E30.09618
G1 X47.576 Y179.81 E30.11421
G1 X47.41 Y178.922 E30.13224
G1 X47.313 Y177.767 E30.15537
G1 X47.304 Y177.434 E30.16201
G1 X47.3 Y177.158 E30.16752
G1 X47.301 Y58.036 E32.54473
G1 X47.31 Y57.371 E32.558
G1 X47.362 Y56.469 E32.57603
G1 X47.494 Y55.576 E32.59405
G1 X47.704 Y54.698 E32.61206
G1 X47.991 Y53.841 E32.6301
G1 X48.353 Y53.014 E32.64811
G1 X48.786 Y52.222 E32.66613
G1 X49.288 Y51.471 E32.68415
G1 X49.855 Y50.767 E32.70219
G1 X50.481 Y50.117 E32.7202
G1 F2700 E27.7202
;MESH:face avant.stl
G0 F6000 X74.165 Y140.299
G0 X72.33 Y140.299
G0 X72.5 Y146.5
;TYPE:WALL-INNER
G1 F2700 E32.7202
G1 F1200 X162.5 Y146.5 E34.51625
G1 X162.5 Y88.5 E35.6737
G1 X72.5 Y88.5 E37.46975
G1 X72.5 Y146.5 E38.6272
G0 F6000 X72.9 Y146.1
G1 F1200 X162.1 Y146.1 E40.40728
G1 X162.1 Y88.9 E41.54877
G1 X72.9 Y88.9 E43.32885
G1 X72.9 Y146.1 E44.47034
G0 F6000 X73.3 Y145.7
;TYPE:WALL-OUTER
G1 F1200 X161.7 Y145.7 E46.23446
G1 X161.7 Y89.3 E47.35998
G1 X73.3 Y89.3 E49.1241
G1 X73.3 Y145.7 E50.24962
G1 F2700 E45.24962
G0 F6000 X73 Y145.7
G0 X107.148 Y146.67
G0 X107.148 Y144.835
G0 X178.165 Y146.69
G0 X176.29 Y146.69
G0 X176.5 Y176.5
;TYPE:WALL-INNER
G1 F2700 E50.24962
G1 F1200 X58.5 Y176.5 E52.60444
G1 X58.5 Y58.5 E54.95926
G1 X154.5 Y58.5 E56.87504
G1 X154.5 Y80.5 E57.31408
G1 X175.5 Y80.5 E57.73315
G1 X175.5 Y58.5 E58.17219
G1 X176.5 Y58.5 E58.19214
G1 X176.5 Y176.5 E60.54696
G0 F6000 X176.9 Y176.9
G1 F1200 X58.1 Y176.9 E62.91774
G1 X58.1 Y58.1 E65.28853
G1 X154.9 Y58.1 E67.22027
G1 X154.9 Y80.1 E67.65931
G1 X175.1 Y80.1 E68.06242
G1 X175.1 Y58.1 E68.50146
G1 X176.9 Y58.1 E68.53738
G1 X176.9 Y176.9 E70.90816
G0 F6000 X177.3 Y177.3
;TYPE:WALL-OUTER
G1 F1200 X57.7 Y177.3 E73.29491
G1 X57.7 Y57.7 E75.68165
G1 X155.3 Y57.7 E77.62937
G1 X155.3 Y79.7 E78.0684
G1 X174.7 Y79.7 E78.45555
G1 X174.7 Y57.7 E78.89458
G1 X177.3 Y57.7 E78.94647
G1 X177.3 Y177.3 E81.33322
G0 F6000 X177.03 Y177.03
G0 X176.39 Y176.11
G0 X176.11 Y176.11
;TYPE:SKIN
G1 F1200 X58.89 Y176.11 E83.67247
G1 X58.89 Y58.89 E86.01172
G1 X154.11 Y58.89 E87.91194
G1 X154.11 Y80.89 E88.35097
G1 X175.89 Y80.89 E88.78561
G1 X175.89 Y58.89 E89.22465
G1 X176.11 Y58.89 E89.22904
G1 X176.11 Y176.11 E91.56829
G1 F2700 E86.56829
G0 F6000 X176.39 Y176.11
G0 X176.29 Y146.64
G0 X178.165 Y146.64
G0 X160.573 Y144.835
G0 X160.573 Y146.67
G0 X162.61 Y146.64
G0 X162.89 Y146.89
G1 F2700 E91.56829
G1 F1200 X162.89 Y88.11 E92.74131
G1 X72.11 Y88.11 E94.55292
G1 X72.11 Y146.89 E95.72594
G1 X162.89 Y146.89 E97.53755
G1 F2700 E92.53755
G0 F6000 X162.61 Y146.64
G0 X162.67 Y141.715
G0 X160.835 Y141.715
G0 X178.165 Y88.304
G0 X176.29 Y88.304
G0 X176.39 Y81.479
G0 X175.949 Y81.479
G1 F2700 E97.53755
G1 F1200 X175.519 Y81.049 E97.54969
G0 F6000 X174.953 Y81.049
G1 F1200 X175.949 Y82.045 E97.5778
G0 F6000 X175.949 Y82.611
G1 F1200 X174.388 Y81.049 E97.62187
G0 F6000 X173.822 Y81.049
G1 F1200 X175.949 Y83.176 E97.6819
G0 F6000 X175.949 Y83.742
G1 F1200 X173.256 Y81.049 E97.7579
G0 F6000 X172.691 Y81.049
G1 F1200 X175.949 Y84.308 E97.84986
G0 F6000 X175.949 Y84.874
G1 F1200 X172.125 Y81.049 E97.9578
G0 F6000 X171.559 Y81.049
G1 F1200 X175.949 Y85.439 E98.08169
G0 F6000 X175.949 Y86.005
G1 F1200 X170.993 Y81.049 E98.22156
G0 F6000 X170.428 Y81.049
G1 F1200 X175.949 Y86.571 E98.37739
G0 F6000 X175.949 Y87.136
G1 F1200 X169.862 Y81.049 E98.54918
G0 F6000 X169.296 Y81.049
G1 F1200 X175.949 Y87.702 E98.73694
G0 F6000 X175.949 Y88.268
G1 F1200 X168.731 Y81.049 E98.94066
G0 F6000 X168.165 Y81.049
G1 F1200 X175.949 Y88.833 E99.16034
G0 F6000 X175.949 Y89.399
G1 F1200 X167.599 Y81.049 E99.396
G0 F6000 X167.034 Y81.049
G1 F1200 X175.949 Y89.965 E99.64761
G0 F6000 X175.949 Y90.53
G1 F1200 X166.468 Y81.049 E99.91519
G0 F6000 X165.902 Y81.049
G1 F1200 X175.949 Y91.096 E100.19873
G0 F6000 X175.949 Y91.662
G1 F1200 X165.337 Y81.049 E100.49824
G0 F6000 X164.771 Y81.049
G1 F1200 X175.949 Y92.227 E100.81371
G0 F6000 X175.949 Y92.793
G1 F1200 X164.205 Y81.049 E101.14515
G0 F6000 X163.64 Y81.049
G1 F1200 X175.949 Y93.359 E101.49255
G0 F6000 X175.949 Y93.924
G1 F1200 X163.074 Y81.049 E101.85591
G0 F6000 X162.508 Y81.049
G1 F1200 X175.949 Y94.49 E102.23524
G0 F6000 X175.949 Y95.056
G1 F1200 X161.943 Y81.049 E102.63054
G0 F6000 X161.377 Y81.049
G1 F1200 X175.949 Y95.622 E103.04181
G0 F6000 X175.949 Y96.187
G1 F1200 X160.811 Y81.049 E103.46903
G0 F6000 X160.245 Y81.049
G1 F1200 X175.949 Y96.753 E103.91223
G0 F6000 X175.949 Y97.319
G1 F1200 X159.68 Y81.049 E104.37139
G0 F6000 X159.114 Y81.049
G1 F1200 X175.949 Y97.884 E104.84651
G0 F6000 X175.949 Y98.45
G1 F1200 X158.548 Y81.049 E105.33761
G0 F6000 X157.983 Y81.049
G1 F1200 X175.949 Y99.016 E105.84466
G0 F6000 X175.949 Y99.581
G1 F1200 X157.417 Y81.049 E106.36767
G0 F6000 X156.851 Y81.049
G1 F1200 X175.949 Y100.147 E106.90666
G0 F6000 X175.949 Y100.713
G1 F1200 X156.286 Y81.049 E107.46161
G0 F6000 X155.72 Y81.049
G1 F1200 X162.619 Y87.949 E107.65633
G0 F6000 X162.054 Y87.949
G1 F1200 X155.154 Y81.049 E107.85106
G0 F6000 X154.589 Y81.049
G1 F1200 X161.488 Y87.949 E108.04578
G0 F6000 X160.922 Y87.949
G1 F1200 X154.023 Y81.049 E108.2405
G0 F6000 X153.949 Y80.976
G1 F1200 X132.023 Y59.049 E108.85931
G0 F6000 X132.588 Y59.049
G1 F1200 X153.949 Y80.41 E109.46216
G0 F6000 X153.949 Y79.845
G1 F1200 X133.154 Y59.049 E110.04906
G0 F6000 X133.72 Y59.049
G1 F1200 X153.949 Y79.279 E110.61998
G0 F6000 X153.949 Y78.713
G1 F1200 X134.285 Y59.049 E111.17494
G0 F6000 X134.851 Y59.049
G1 F1200 X153.949 Y78.148 E111.71394
G0 F6000 X153.949 Y77.582
G1 F1200 X135.417 Y59.049 E112.23697
G0 F6000 X135.982 Y59.049
G1 F1200 X153.949 Y77.016 E112.74403
G0 F6000 X153.949 Y76.45
G1 F1200 X136.548 Y59.049 E113.23513
G0 F6000 X137.114 Y59.049
G1 F1200 X153.949 Y75.885 E113.71026
G0 F6000 X153.949 Y75.319
G1 F1200 X137.68 Y59.049 E114.16942
G0 F6000 X138.245 Y59.049
G1 F1200 X153.949 Y74.753 E114.61262
G0 F6000 X153.949 Y74.188
G1 F1200 X138.811 Y59.049 E115.03986
G0 F6000 X139.377 Y59.049
G1 F1200 X153.949 Y73.622 E115.45113
G0 F6000 X153.949 Y73.056
G1 F1200 X139.942 Y59.049 E115.84644
G0 F6000 X140.508 Y59.049
G1 F1200 X153.949 Y72.491 E116.22579
